X:048
T: Dublin Volunteers
N: O'Farrell's Pocket Companion v.1 (Sky ed. p.39)
N: "Irish"
M: C
L: 1/8
R: reel
Q: 360
K: G
z|GBdg gfac|cBdG BAGF|GBdg gfed|gedc d>e d/c/B/A/|
GBdg gfac|cBdG BAGF|GBdg gfed|ged^c d2 d ||
f/g/|afdf gdBG|ecAG GFED|GBdg gf/g/ac|BAGF G2G :|
